X:680
T:Mrs. Baird of Newbyth
R:Strathspey
B:The Athole Collection
M:C
L:1/8
K:C
F|E/F/G G>A c>de>d|c>AG>E A<D D>F|E/F/G G>A c>de>d|
c>AG>E G<CC:|
f|e/f/g c>g e<c g>e|f>g a/g/f/e/ f<d d>g|e/f/g c>g e<c g>e|
c<A G>E G<C C>f|e/f/g c>g e<cg>e|f>g a/g/f/e/ f<d d>g|
e>gd>e c>de>d|c>AG>E G<CC||

